X:1
T:The Star Spangled Banner
T:The Star Spangled Banner
T:John S. Smith, harm. Arthur E. Johnstone,  1918
T:Public Domain Courtesy of the Cyber Hymnal™
T:Public Domain Courtesy of the Cyber Hymnal™
C:John S. Smith, harm. Arthur E. Johnstone,  1918
Z:Public Domain
Z:Courtesy of the Cyber Hymnal™
%%score ( 1 2 ) ( 3 4 ) ( 5 6 ) ( 7 8 )
L:1/8
Q:1/4=90
M:3/4
K:Bb
V:1 treble 
V:2 treble 
V:3 bass 
V:4 bass 
V:5 treble 
V:6 treble 
V:7 bass 
V:8 bass 
V:1
 F>D | B,2 D2 F2 | B4 d>c | B2 D2 =E2 | F4 FF x2 | d3 c B2 | A4 GA | B2 B2 F2 | D2 B,2 F>D | %9
 B,2 D2 F2 | B4 d>c | B2 D2 =E2 | F4 FF | d3 c B2 | A4 GA | B2 B2 F2 | D2 B,2 [Bd][Bd] | %17
 [Bd]2 [ce]2 [df]2 | [df]4 [ce][Bd] x2 | [Ac]2 [Bd]2 [ce]2 | [ce]4 [ce]2 | [Bd]3 [Ac] B2 | A4 GA | %23
 B2 D2 =E2 | F4 F2 | [FB]2 [FB]2 BA | [EG]2 [EG]2 [DG]2 | [Gc]2 [Ee][Fd] cB | B2 !fermata!A2 FF | %29
 B3 c [Fd][Be] | !fermata![Bf]4 B[Bc] | [Bd]3 [Ge] [Ac]2 | [FB]4 |] %33
V:2
 x2 | x6 | x6 | x6 | x8 | x6 | x6 | x6 | x6 | x6 | x6 | x6 | x6 | x6 | x6 | x6 | x6 | x6 | x8 | %19
 x6 | x6 | x4 B2 | A4 GA | B2 D2 =E2 | F4 F2 | x4 F2 | x6 | x4 G2 | F4 FF | F4 x2 | x4 B x | x6 | %32
 x4 |] %33
V:3
 F,([E,F,] | [D,B,]2) [B,,D]2 [D,B,]2 | [E,B,]2 [G,B,]2 [G,=B,]2 | [F,C]2 G,2 [E,E][=E,D] | %4
 D2 !fermata!C2 F,[_E,F,] x2 | [D,B,]3 [F,C] [B,D][G,E] | !fermata![D,F]4 [G,D][G,=E] | %7
 [F,F]3 [F,F] [F,_E]2 | [B,,D]4 x2 | x6 | x6 | x6 | x6 | x6 | x6 | x6 | x6 | x6 | x8 | x6 | x6 | %21
 x6 | x6 | x6 | x6 | x6 | x6 | x6 | x6 | x6 | x6 | x6 | x4 |] %33
V:4
 F, x | x6 | x6 | x2 C,D, x2 | F,4 F, x3 | x6 | x6 | x6 | x6 | x6 | x6 | x6 | x6 | x6 | x6 | x6 | %16
 x6 | x6 | x8 | x6 | x6 | x6 | x6 | x6 | x6 | x6 | x6 | x6 | x6 | x6 | x6 | x6 | x4 |] %33
V:5
 F>D | B,2 [B,D]2 [CF]2 | [DGB]4 [DA]2 | [B,DGB]2 [G,B,D]2 [G,B,C=E]2 | [A,CF]4 [C_EF]2 x2 | %5
 [DBd]3 [CFc] [B,FB]2 | [CEFA]4 GA | [B,FB]2 [B,B]2 F2 | D2 B,2 F>D | B,2 [F,B,D]2 [F,CF]2 | %10
 [B,DGB]4 [DA]2 | [B,DGB]2 [G,B,D]2 [G,B,C=E]2 | [A,CF]4 [C_EF]2 | [DFd]3 [CFc] [B,FB]2 | %14
 [A,EFA]4 GA | [B,FB]2 [B,B]2 F2 | D2 B,2 [Bd]2 | [Bd]2 [ce]2 [df]2 | [Fdf]4 [ce][Bd] x2 | %19
 [Ac]2 [Bd]2 [ce]2 | [Fce]4 [Ece]2 | [DBd]3 [CFc] [B,FB]2 | [A,EFA]4 GA | [FB]2 [B,D]2 [B,C=E]2 | %24
 [A,CF]4 [A,CF]2 | [B,FB]2 [DFB]2 BA | [B,EG]2 [B,EG]2 [=B,DG]2 | [CGc]2 [Gce][F=Bd][EGc][D_B] | %28
 [DF-B]2 [CFA]2 [A,CF]2 | [B,FB]3 [CFc] [DFd][EBe] | !fermata![FBf]4 [B,DB][C=EBc] | %31
 [DFBd]3 [EGBe] [A,EFAc]2 | [B,DFB]4 |] %33
V:6
 x2 | x6 | x4 A,>C | x6 | x8 | x6 | x4 [CF]2 | x6 | x4 F,2 | x6 | x4 A,>C | x6 | x6 | x6 | %14
 x4 [CF]2 | x6 | x6 | x6 | x3 F2- x3 | F6 | x6 | x6 | x4 [CF]2 | x6 | x6 | x4 [B,-F]2 | x6 | x6 | %28
 x6 | x6 | x6 | x6 | x4 |] %33
V:7
 F,>D, | B,,2 [B,,F,]2 [A,,A,]2 | [G,,G,]4 ^F,,2 | G,,4 [C,,C,]2 | [F,,,F,,]2 F,4- A,,2 | %5
 [B,,F,]3 [E,F,] [D,F,-]2 | F,4 [E,,E,]2 | [D,,D,]2 B,,2 F,2 | D,2 B,,2 F,,>D,, | %9
 B,,,2 [B,,,B,,]2 [A,,,A,,]2 | [G,,,G,,]4 [^F,,,^F,,]2 | [G,,,G,,]4 [C,,C,]2 | %12
 [F,,,F,,]2 [F,,F,]2 [G,,,A,,]2 | [A,,,B,,]3 [E,F,] [D,F,-]2 | F,4 [E,,E,]2 | %15
 [D,,D,]2 B,,2 [F,,F,]2 | [D,,D,]2 [B,,,B,,]2 [B,D]2 | [B,D]2 [CE]2 [DF]2 | z2 z2 [CE][B,D] x2 | %19
 [F,C]2 [B,D]2 [CE]2 | E4 [A,,F,]2 | F,4 [D,F,]2 | F,4 [E,,E,]2 | [D,,D,]2 [G,,G,]2 [C,,C,]2 | %24
 F,,2- [F,,,F,,]2 [F,,F,][E,,E,] | [D,,D,]2 [B,,,B,,]2 [D,,D,]2 | [E,,E,]2 [G,,G,]2 [F,,F,]2 | %27
 [F,,E,]2 [C,,C,][D,,D,][E,,E,][=E,,=E,] | !fermata![F,,F,]4 [F,,F,][_E,,_E,] | %29
 [D,,D,]3 [F,,F,] [B,,B,][G,B,] | !fermata![D,B,]4 [G,,G,]2 | [F,,F,]4 [F,,,F,,]2 | [B,,,B,,]4 |] %33
V:8
 x2 | x6 | x6 | x6 | x2 F,,2 x4 | x6 | C,2 F,,2 x2 | x6 | x6 | x6 | x6 | x6 | x6 | x6 | %14
 C,2 F,,2 x2 | x6 | x6 | x6 | D4 F,4- | x6 | C2 A,2 x2 | B,,3 E, x2 | C,2 F,,2 x2 | x6 | x6 | x6 | %26
 x6 | x6 | x6 | x6 | x6 | x6 | x4 |] %33

